material/.icons/material/store-outline.svg

<?xml version="1.0" encoding="UTF-8"?><!DOCTYPE svg PUBLIC "-//W3C//DTD SVG 1.1//EN" "http://www.w3.org/Graphics/SVG/1.1/DTD/svg11.dtd"><svg xmlns="http://www.w3.org/2000/svg" xmlns:xlink="http://www.w3.org/1999/xlink" version="1.1" id="mdi-store-outline" width="24" height="24" viewBox="0 0 24 24"><path d="M18.36 9L18.96 12H5.04L5.64 9H18.36M20 4H4V6H20V4M20 7H4L3 12V14H4V20H14V14H18V20H20V14H21V12L20 7M6 18V14H12V18H6Z" /></svg>

<svg xmlns="http://www.w3.org/2000/svg" viewBox="0 0 24 24"><path d="M18.36 9l.6 3H5.04l.6-3h12.72M20 4H4v2h16V4m0 3H4l-1 5v2h1v6h10v-6h4v6h2v-6h1v-2l-1-5M6 18v-4h6v4H6z"/></svg>
